SVG_Azure_Grouped/Identity/Identity Governance.svg

<?xml version="1.0" encoding="UTF-8" standalone="no"?>
<!-- Generated by Microsoft Visio, SVG Export Identity Governance.svg Page-1 -->

<svg
   xmlns:dc="http://purl.org/dc/elements/1.1/"
   xmlns:cc="http://creativecommons.org/ns#"
   xmlns:rdf="http://www.w3.org/1999/02/22-rdf-syntax-ns#"
   xmlns:svg="http://www.w3.org/2000/svg"
   xmlns="http://www.w3.org/2000/svg"
   xmlns:sodipodi="http://sodipodi.sourceforge.net/DTD/sodipodi-0.dtd"
   xmlns:inkscape="http://www.inkscape.org/namespaces/inkscape"
   width="0.79469955in"
   height="0.79446352in"
   viewBox="0 0 57.218261 57.201516"
   xml:space="preserve"
   class="st9"
   version="1.1"
   id="svg84"
   sodipodi:docname="Identity Governance.svg"
   style="font-size:12px;overflow:visible;color-interpolation-filters:sRGB;fill:none;fill-rule:evenodd;stroke-linecap:square;stroke-miterlimit:3"
   inkscape:version="0.92.5 (2060ec1f9f, 2020-04-08)"><metadata
   id="metadata88"><rdf:RDF><cc:Work
       rdf:about=""><dc:format>image/svg+xml</dc:format><dc:type
         rdf:resource="http://purl.org/dc/dcmitype/StillImage" /></cc:Work></rdf:RDF></metadata><sodipodi:namedview
   pagecolor="#ffffff"
   bordercolor="#666666"
   borderopacity="1"
   objecttolerance="10"
   gridtolerance="10"
   guidetolerance="10"
   inkscape:pageopacity="0"
   inkscape:pageshadow="2"
   inkscape:window-width="640"
   inkscape:window-height="480"
   id="namedview86"
   showgrid="false"
   inkscape:zoom="1.3703543"
   inkscape:cx="38.143265"
   inkscape:cy="38.134986"
   inkscape:window-x="0"
   inkscape:window-y="0"
   inkscape:window-maximized="0"
   inkscape:current-layer="svg84" />
	<style
   type="text/css"
   id="style2">
	<![CDATA[
		.st1 {fill:#0078d4;stroke:none;stroke-linecap:butt;stroke-width:35.9798}
		.st2 {fill:#32bedd;stroke:none;stroke-linecap:butt;stroke-width:35.9798}
		.st3 {fill:#ffffff}
		.st4 {stroke:none;stroke-linecap:butt;stroke-width:35.9798}
		.st5 {fill:#ffffff;stroke:none;stroke-linecap:butt;stroke-width:35.9798}
		.st6 {fill:url(#grad0-24);stroke:none;stroke-linecap:butt;stroke-width:35.9798}
		.st7 {fill:#ffffff;fill-opacity:0.8;stroke:none;stroke-linecap:butt;stroke-width:35.9798}
		.st8 {fill:url(#grad0-30);stroke:none;stroke-linecap:butt;stroke-width:35.9798}
		.st9 {fill:none;fill-rule:evenodd;font-size:12px;overflow:visible;stroke-linecap:square;stroke-miterlimit:3}
	]]>
	</style>

	<defs
   id="Patterns_And_Gradients">
		<linearGradient
   id="grad0-24"
   x1="-0.012343141"
   y1="143.62931"
   x2="22.587395"
   y2="143.62931"
   gradientTransform="scale(1.287001,0.77700016)"
   gradientUnits="userSpaceOnUse">
			<stop
   offset="0"
   stop-color="#a67af4"
   stop-opacity="1"
   id="stop4" />
			<stop
   offset="1"
   stop-color="#552f99"
   stop-opacity="1"
   id="stop6" />
		</linearGradient>
		<linearGradient
   id="grad0-30"
   x1="0"
   y1="113.22404"
   x2="16.249264"
   y2="113.22404"
   gradientTransform="scale(1.0024011,0.99760461)"
   gradientUnits="userSpaceOnUse">
			<stop
   offset="0"
   stop-color="#a67af4"
   stop-opacity="1"
   id="stop9" />
			<stop
   offset="1"
   stop-color="#552f99"
   stop-opacity="1"
   id="stop11" />
		</linearGradient>
	</defs>
	<g
   id="g82"
   transform="translate(-35.982763,-35.981797)">
		<title
   id="title15">Page-1</title>
		<g
   id="group13378-1"
   transform="translate(36.2436,-36.2373)">
			<title
   id="title17">Identity Governance.13378</title>
			<g
   id="shape13379-2">
				<title
   id="title19">path4</title>
				<path
   d="M 5,110.13 A 25.0117,24.892 0 0 1 8.41,85.71 6.61073,6.5791 0 0 1 6.03,82.9 28.8964,28.7581 -180 0 0 2.04,112.06 10.5635,10.513 0 0 1 5,110.13 Z M 17.92,74.15 a 10.6998,10.6486 0 0 1 2.11,3.05 25.5569,25.4346 0 0 1 8.32,-1.46 24.9776,24.8581 0 0 1 14.75,4.72 7.32632,7.29126 0 0 1 1.88,-2.34 l 0.4,-0.31 A 28.7601,28.6225 -180 0 0 17.92,74.15 Z m 33.77,17.36 a 24.9436,24.8242 0 0 1 -3.41,24.39 6.81518,6.78257 0 0 1 1.47,1.35 6.61073,6.5791 0 0 1 0.92,1.46 28.8964,28.7581 -180 0 0 3.98,-29.17 10.6658,10.6147 0 0 1 -2.96,1.97 z m -15.03,33.03 a 24.705,24.5868 0 0 1 -8.31,1.33 24.9436,24.8242 0 0 1 -14.76,-4.72 6.98556,6.95214 0 0 1 -1.87,2.34 l -0.41,0.31 a 28.8964,28.7581 -180 0 0 27.57,3.69 10.6658,10.6147 0 0 1 -2.22,-2.95 z"
   class="st1"
   id="path21"
   inkscape:connector-curvature="0"
   style="fill:#0078d4;stroke:none;stroke-width:35.97980118;stroke-linecap:butt" />
			</g>
			<g
   id="shape13380-4"
   transform="translate(5.10668,-40.5161)">
				<title
   id="title24">path6</title>
				<path
   d="m 10.22,117.14 a 7.12187,7.08779 0 1 1 -10.22,0 7.12187,7.08779 0 0 1 10.22,0 z"
   class="st2"
   id="path26"
   inkscape:connector-curvature="0"
   style="fill:#32bedd;stroke:none;stroke-width:35.97980118;stroke-linecap:butt" />
			</g>
			<g
   id="shape13381-6"
   transform="translate(6.84029,-44.0408)">
				<title
   id="title29">path8</title>
				<path
   d="m 5.9,128.13 a 3.40759,3.39129 -180 0 0 0,-4.92 3.40759,3.39129 -180 0 0 -4.84,0 3.40759,3.39129 -180 0 0 0,4.92 3.40759,3.39129 -180 0 0 4.91,0 z"
   class="st3"
   id="path31"
   inkscape:connector-curvature="0"
   style="fill:#ffffff" />
				<path
   d="m 5.9,128.13 a 3.40759,3.39129 -180 0 0 0,-4.92 3.40759,3.39129 -180 0 0 -4.84,0 3.40759,3.39129 -180 0 0 0,4.92 3.40759,3.39129 -180 0 0 4.91,0"
   class="st4"
   id="path33"
   inkscape:connector-curvature="0"
   style="stroke:none;stroke-width:35.97980118;stroke-linecap:butt" />
			</g>
			<g
   id="shape13382-9"
   transform="translate(40.5139,-42.3656)">
				<title
   id="title36">path10</title>
				<path
   d="m 2.08,118.99 a 7.12187,7.08779 0 1 1 0,10.17 7.12187,7.08779 0 0 1 0,-10 z"
   class="st2"
   id="path38"
   inkscape:connector-curvature="0"
   style="fill:#32bedd;stroke:none;stroke-width:35.97980118;stroke-linecap:butt" />
			</g>
			<g
   id="shape13383-11"
   transform="translate(44.3323,-45.0787)">
				<title
   id="title41">path12</title>
				<path
   d="m 5.75,124.25 a 3.40759,3.39129 -180 1 0 0,4.91 3.40759,3.39129 -180 0 0 0,-4.91 z"
   class="st5"
   id="path43"
   inkscape:connector-curvature="0"
   style="fill:#ffffff;stroke:none;stroke-width:35.97980118;stroke-linecap:butt" />
			</g>
			<g
   id="shape13384-13"
   transform="translate(41.3635,-2.02754)">
				<title
   id="title46">path14</title>
				<path
   d="m 0,127.01 a 7.12187,7.08779 0 1 1 10.22,0 7.12187,7.08779 0 0 1 -10.22,0 z"
   class="st2"
   id="path48"
   inkscape:connector-curvature="0"
   style="fill:#32bedd;stroke:none;stroke-width:35.97980118;stroke-linecap:butt" />
			</g>
			<g
   id="shape13385-15"
   transform="translate(42.8926,-5.6854)">
				<title
   id="title51">path16</title>
				<path
   d="m 1.06,123.21 a 3.40759,3.39129 -180 0 0 0,4.92 3.40759,3.39129 -180 0 0 4.91,0 3.40759,3.39129 -180 0 0 0,-4.92 3.40759,3.39129 -180 0 0 -4.91,0 z"
   class="st5"
   id="path53"
   inkscape:connector-curvature="0"
   style="fill:#ffffff;stroke:none;stroke-width:35.97980118;stroke-linecap:butt" />
			</g>
			<g
   id="shape13386-17"
   transform="translate(1.93523,-4.17976)">
				<title
   id="title56">path18</title>
				<path
   d="m 12.17,129.16 a 7.12187,7.08779 0 1 1 0,-10 7.12187,7.08779 0 0 1 0,10 z"
   class="st2"
   id="path58"
   inkscape:connector-curvature="0"
   style="fill:#32bedd;stroke:none;stroke-width:35.97980118;stroke-linecap:butt" />
			</g>
			<g
   id="shape13387-19"
   transform="translate(5.54541,-6.72322)">
				<title
   id="title61">path20</title>
				<path
   d="m 1.06,129.16 a 3.40759,3.39129 -180 1 0 0,-4.91 3.40759,3.39129 -180 0 0 0,4.91 z"
   class="st5"
   id="path63"
   inkscape:connector-curvature="0"
   style="fill:#ffffff;stroke:none;stroke-width:35.97980118;stroke-linecap:butt" />
			</g>
			<g
   id="shape13388-21"
   transform="translate(13.8301,-15.0658)">
				<title
   id="title66">path22</title>
				<path
   d="m 26.48,129.16 a 2.58977,2.57738 -180 0 0 2.59,-2.57 v -0.31 C 28.15,118.21 23.41,111.6 14.52,111.6 5.62,111.6 0.89,117.19 0,126.31 a 2.58977,2.57738 -180 0 0 2.32,2.85 z"
   class="st6"
   id="path68"
   inkscape:connector-curvature="0"
   style="fill:url(#grad0-24);stroke:none;stroke-width:35.97980118;stroke-linecap:butt" />
			</g>
			<g
   id="shape13389-25"
   transform="translate(23.9166,-20.6275)">
				<title
   id="title71">path24</title>
				<path
   d="M 4.43,119.09 A 8.2123,8.173 0 0 1 0,117.8 l 4.43,11.36 4.33,-11.12 a 8.07599,8.03735 0 0 1 -4.33,1.05 z"
   class="st7"
   id="path73"
   inkscape:connector-curvature="0"
   style="fill:#ffffff;fill-opacity:0.8;stroke:none;stroke-width:35.97980118;stroke-linecap:butt" />
			</g>
			<g
   id="shape13390-27"
   transform="translate(20.2364,-30.6996)">
				<title
   id="title76">circle26</title>
				<ellipse
   cx="8.1441402"
   cy="121.058"
   rx="8.1441402"
   ry="8.1051702"
   class="st8"
   id="ellipse78"
   style="fill:url(#grad0-30);stroke:none;stroke-width:35.97980118;stroke-linecap:butt" />
			</g>
		</g>
	</g>
</svg>

<?xml version="1.0" encoding="UTF-8" standalone="no"?>
<!DOCTYPE svg PUBLIC "-//W3C//DTD SVG 1.1//EN" "http://www.w3.org/Graphics/SVG/1.1/DTD/svg11.dtd">
<!-- Generated by Microsoft Visio, SVG Export Identity Governance.svg Page-1 -->
<svg xmlns="http://www.w3.org/2000/svg" xmlns:xlink="http://www.w3.org/1999/xlink" xmlns:ev="http://www.w3.org/2001/xml-events"
		width="1.79417in" height="1.79394in" viewBox="0 0 129.18 129.164" xml:space="preserve" color-interpolation-filters="sRGB"
		class="st9">
	<style type="text/css">
	<![CDATA[
		.st1 {fill:#0078d4;stroke:none;stroke-linecap:butt;stroke-width:35.9798}
		.st2 {fill:#32bedd;stroke:none;stroke-linecap:butt;stroke-width:35.9798}
		.st3 {fill:#ffffff}
		.st4 {stroke:none;stroke-linecap:butt;stroke-width:35.9798}
		.st5 {fill:#ffffff;stroke:none;stroke-linecap:butt;stroke-width:35.9798}
		.st6 {fill:url(#grad0-24);stroke:none;stroke-linecap:butt;stroke-width:35.9798}
		.st7 {fill:#ffffff;fill-opacity:0.8;stroke:none;stroke-linecap:butt;stroke-width:35.9798}
		.st8 {fill:url(#grad0-30);stroke:none;stroke-linecap:butt;stroke-width:35.9798}
		.st9 {fill:none;fill-rule:evenodd;font-size:12px;overflow:visible;stroke-linecap:square;stroke-miterlimit:3}
	]]>
	</style>

	<defs id="Patterns_And_Gradients">
		<linearGradient id="grad0-24" x1="0" y1="0" x2="1" y2="0" gradientTransform="rotate(90 0.5 0.5)">
			<stop offset="0" stop-color="#a67af4" stop-opacity="1"/>
			<stop offset="1" stop-color="#552f99" stop-opacity="1"/>
		</linearGradient>
		<linearGradient id="grad0-30" x1="0" y1="0" x2="1" y2="0" gradientTransform="rotate(85.383652397436 0.5 0.5)">
			<stop offset="0" stop-color="#a67af4" stop-opacity="1"/>
			<stop offset="1" stop-color="#552f99" stop-opacity="1"/>
		</linearGradient>
	</defs>
	<g>
		<title>Page-1</title>
		<g id="group13076-1" transform="translate(36.2436,-36.2373)">
			<title>Identity Governance.13076</title>
			<g id="shape13077-2">
				<title>path4</title>
				<path d="M5 110.13 A25.0117 24.892 0 0 1 8.41 85.71 A6.61073 6.5791 0 0 1 6.03 82.9 A28.8964 28.7581 -180 0 0 2.04
							 112.06 A10.5635 10.513 0 0 1 5 110.13 ZM17.92 74.15 A10.6998 10.6486 0 0 1 20.03 77.2 A25.5569 25.4346
							 0 0 1 28.35 75.74 A24.9776 24.8581 0 0 1 43.1 80.46 A7.32632 7.29126 0 0 1 44.98 78.12 L45.38 77.81
							 A28.7601 28.6225 -180 0 0 17.92 74.15 ZM51.69 91.51 A24.9436 24.8242 0 0 1 48.28 115.9 A6.81518 6.78257
							 0 0 1 49.75 117.25 A6.61073 6.5791 0 0 1 50.67 118.71 A28.8964 28.7581 -180 0 0 54.65 89.54 A10.6658
							 10.6147 0 0 1 51.69 91.51 ZM36.66 124.54 A24.705 24.5868 0 0 1 28.35 125.87 A24.9436 24.8242 0 0 1 13.59
							 121.15 A6.98556 6.95214 0 0 1 11.72 123.49 L11.31 123.8 A28.8964 28.7581 -180 0 0 38.88 127.49 A10.6658
							 10.6147 0 0 1 36.66 124.54 L36.66 124.54 Z" class="st1"/>
			</g>
			<g id="shape13078-4" transform="translate(5.10668,-40.5161)">
				<title>path6</title>
				<path d="M10.22 117.14 A7.12187 7.08779 0 1 1 -0 117.14 A7.12187 7.08779 0 0 1 10.22 117.14 Z" class="st2"/>
			</g>
			<g id="shape13079-6" transform="translate(6.84029,-44.0408)">
				<title>path8</title>
				<path d="M5.9 128.13 A3.40759 3.39129 -180 0 0 5.9 123.21 A3.40759 3.39129 -180 0 0 1.06 123.21 A3.40759 3.39129
							 -180 0 0 1.06 128.13 A3.40759 3.39129 -180 0 0 5.97 128.13 L5.9 128.13 Z" class="st3"/>
				<path d="M5.9 128.13 A3.40759 3.39129 -180 0 0 5.9 123.21 A3.40759 3.39129 -180 0 0 1.06 123.21 A3.40759 3.39129
							 -180 0 0 1.06 128.13 A3.40759 3.39129 -180 0 0 5.97 128.13" class="st4"/>
			</g>
			<g id="shape13080-9" transform="translate(40.5139,-42.3656)">
				<title>path10</title>
				<path d="M2.08 118.99 A7.12187 7.08779 0 1 1 2.08 129.16 A7.12187 7.08779 0 0 1 2.08 119.16 L2.08 118.99 Z"
						class="st2"/>
			</g>
			<g id="shape13081-11" transform="translate(44.3323,-45.0787)">
				<title>path12</title>
				<path d="M5.75 124.25 A3.40759 3.39129 -180 1 0 5.75 129.16 A3.40759 3.39129 -180 0 0 5.75 124.25 Z" class="st5"/>
			</g>
			<g id="shape13082-13" transform="translate(41.3635,-2.02754)">
				<title>path14</title>
				<path d="M0 127.01 A7.12187 7.08779 0 1 1 10.22 127.01 A7.12187 7.08779 0 0 1 0 127.01 Z" class="st2"/>
			</g>
			<g id="shape13083-15" transform="translate(42.8926,-5.6854)">
				<title>path16</title>
				<path d="M1.06 123.21 A3.40759 3.39129 -180 0 0 1.06 128.13 A3.40759 3.39129 -180 0 0 5.97 128.13 A3.40759 3.39129
							 -180 0 0 5.97 123.21 A3.40759 3.39129 -180 0 0 1.06 123.21 Z" class="st5"/>
			</g>
			<g id="shape13084-17" transform="translate(1.93523,-4.17976)">
				<title>path18</title>
				<path d="M12.17 129.16 A7.12187 7.08779 0 1 1 12.17 119.16 A7.12187 7.08779 0 0 1 12.17 129.16 Z" class="st2"/>
			</g>
			<g id="shape13085-19" transform="translate(5.54541,-6.72322)">
				<title>path20</title>
				<path d="M1.06 129.16 A3.40759 3.39129 -180 1 0 1.06 124.25 A3.40759 3.39129 -180 0 0 1.06 129.16 Z" class="st5"/>
			</g>
			<g id="shape13086-21" transform="translate(13.8301,-15.0658)">
				<title>path22</title>
				<path d="M26.48 129.16 A2.58977 2.57738 -180 0 0 29.07 126.59 L29.07 126.28 C28.15 118.21 23.41 111.6 14.52 111.6
							 C5.62 111.6 0.89 117.19 0 126.31 A2.58977 2.57738 -180 0 0 2.32 129.16 L26.48 129.16 Z" class="st6"/>
			</g>
			<g id="shape13087-25" transform="translate(23.9166,-20.6275)">
				<title>path24</title>
				<path d="M4.43 119.09 A8.2123 8.173 0 0 1 0 117.8 L4.43 129.16 L8.76 118.04 A8.07599 8.03735 0 0 1 4.43 119.09 Z"
						class="st7"/>
			</g>
			<g id="shape13088-27" transform="translate(20.2364,-30.6996)">
				<title>circle26</title>
				<ellipse cx="8.14414" cy="121.058" rx="8.14414" ry="8.10517" class="st8"/>
			</g>
		</g>
	</g>
</svg>
